icon-themes/breeze_svg/res/odm_16_8.svg

<svg viewBox="0 0 16 16" xmlns="http://www.w3.org/2000/svg"><path d="m2 4c-.554 0-1 .446-1 1v6c0 .554.446 1 1 1h2 2c.1385 0 .2552813-.043281.375-.09375.3591577-.151404.625-.490742.625-.90625v-1h2v1c0 .554.446 1 1 1h1 3c.554 0 1-.446 1-1v-6c0-.554-.446-1-1-1h-3-1c-.1385025 0-.2552808.0432812-.375.09375-.3591562.1514062-.625.49075-.625.90625v1h-2v-1c0-.1385-.0432812-.2552813-.09375-.375-.1514039-.3591577-.4907425-.625-.90625-.625h-2zm0 1h2 2v1c-.55401 0-1 .44599-1 1v2c0 .55401.44599 1 1 1v1h-2-2zm8 0h1 3v6h-3-1v-1c.55401 0 1-.44599 1-1v-2c0-.55401-.44599-1-1-1zm-4 2h1 2 1v2h-1-2-1z" fill="#4d4d4d"/></svg>

<svg xmlns="http://www.w3.org/2000/svg" viewBox="0 0 16 16">
 <path 
     style="fill:#4d4d4d" 
     d="M 2 4 C 1.446 4 1 4.446 1 5 L 1 11 C 1 11.554 1.446 12 2 12 L 4 12 L 6 12 C 6.1385 12 6.2552813 11.956719 6.375 11.90625 C 6.7341577 11.754846 7 11.415508 7 11 L 7 10 L 9 10 L 9 11 C 9 11.554 9.446 12 10 12 L 11 12 L 14 12 C 14.554 12 15 11.554 15 11 L 15 5 C 15 4.446 14.554 4 14 4 L 11 4 L 10 4 C 9.8614975 4 9.7447192 4.0432812 9.625 4.09375 C 9.2658438 4.2451562 9 4.5845 9 5 L 9 6 L 7 6 L 7 5 C 7 4.8615 6.9567188 4.7447187 6.90625 4.625 C 6.7548461 4.2658423 6.4155075 4 6 4 L 4 4 L 2 4 z M 2 5 L 4 5 L 6 5 L 6 6 C 5.44599 6 5 6.44599 5 7 L 5 9 C 5 9.55401 5.44599 10 6 10 L 6 11 L 4 11 L 2 11 L 2 5 z M 10 5 L 11 5 L 14 5 L 14 11 L 11 11 L 10 11 L 10 10 C 10.55401 10 11 9.55401 11 9 L 11 7 C 11 6.44599 10.55401 6 10 6 L 10 5 z M 6 7 L 7 7 L 9 7 L 10 7 L 10 9 L 9 9 L 7 9 L 6 9 L 6 7 z "
     />
 </svg>
